public/svg/card.svg

<svg fill="none" xmlns="http://www.w3.org/2000/svg" viewBox="0 0 280 261"><path fill="#fff" d="M0 0h280v261H0z"/><path fill="#C4C4C4" fill-opacity=".27" d="M112.06 28.831l99.5702075 37.9439298-27.4547327 72.0450793-99.5702075-37.9439298z"/><path fill="#F6F6F6" d="M115.137 41.0741l99.5702075 37.9439298-27.4547327 72.0450793-99.5702075-37.9439298z"/><path d="M187.253 151.063l13.727-36.022 13.728-36.023-99.571-37.9439-27.4542 72.0449" stroke="#000" stroke-width="3"/><path fill="#C4C4C4" d="M104.825 88.7011l66.7408668 25.4334186-1.5755198 4.1343852-66.7408667-25.4334185zM99.5442 100.627l54.1739301 20.6444463-1.5755197 4.1343853-54.1739301-20.6444463z"/><path d="M125.19 68.8905c1.067.4067 2.231.4869 3.345.2304 1.114-.2564 2.128-.8379 2.913-1.6709.785-.8331 1.306-1.8802 1.498-3.0091.192-1.1289.045-2.2888-.421-3.333-.466-1.0442-1.231-1.9259-2.198-2.5335-.967-.6076-2.093-.9138-3.235-.88-1.141.0339-2.248.4063-3.18 1.0701-.932.6639-1.647 1.5894-2.055 2.6595-.547 1.435-.503 3.0278.122 4.428.625 1.4003 1.78 2.4933 3.211 3.0385zm-.589 1.5459c-3.344-1.2743-10.809-1.7467-12.376 2.3653l-1.178 3.0918 20.039 7.6365 1.178-3.0918c1.567-4.1121-4.319-8.7274-7.663-10.0018zM41.29 187.21c0 1.74-.6 3.19-1.8 4.35-1.18 1.14-2.99 1.71-5.43 1.71h-4.02V202h-2.73v-20.91h6.75c2.36 0 4.15.57 5.37 1.71 1.24 1.14 1.86 2.61 1.86 4.41zm-7.23 3.81c1.52 0 2.64-.33 3.36-.99.72-.66 1.08-1.6 1.08-2.82 0-2.58-1.48-3.87-4.44-3.87h-4.02v7.68h4.02zm13.353-2.79c.48-.94 1.16-1.67 2.04-2.19.9-.52 1.99-.78 3.27-.78v2.82h-.72c-3.06 0-4.59 1.66-4.59 4.98V202h-2.73v-16.44h2.73v2.67zm23.4615 4.92c0 .52-.03 1.07-.09 1.65h-13.14c.1 1.62.65 2.89 1.65 3.81 1.02.9 2.25 1.35 3.69 1.35 1.18 0 2.16-.27 2.94-.81.8-.56 1.36-1.3 1.68-2.22h2.94c-.44 1.58-1.32 2.87-2.64 3.87-1.32.98-2.96 1.47-4.92 1.47-1.56 0-2.96-.35-4.2-1.05-1.22-.7-2.18-1.69-2.88-2.97-.7-1.3-1.05-2.8-1.05-4.5 0-1.7.34-3.19 1.02-4.47.68-1.28 1.63-2.26 2.85-2.94 1.24-.7 2.66-1.05 4.26-1.05 1.56 0 2.94.34 4.14 1.02 1.2.68 2.12 1.62 2.76 2.82.66 1.18.99 2.52.99 4.02zm-2.82-.57c0-1.04-.23-1.93-.69-2.67-.46-.76-1.09-1.33-1.89-1.71-.78-.4-1.65-.6-2.61-.6-1.38 0-2.56.44-3.54 1.32-.96.88-1.51 2.1-1.65 3.66h10.38zm12.2435 9.69c-1.26 0-2.39-.21-3.39-.63-1-.44-1.79-1.04-2.37-1.8-.58-.78-.9-1.67-.96-2.67h2.82c.08.82.46 1.49 1.14 2.01.7.52 1.61.78 2.73.78 1.04 0 1.86-.23 2.46-.69.6-.46.9-1.04.9-1.74 0-.72-.32-1.25-.96-1.59-.64-.36-1.63-.71-2.97-1.05-1.22-.32-2.22-.64-3-.96-.76-.34-1.42-.83-1.98-1.47-.54-.66-.81-1.52-.81-2.58 0-.84.25-1.61.75-2.31s1.21-1.25 2.13-1.65c.92-.42 1.97-.63 3.15-.63 1.82 0 3.29.46 4.41 1.38 1.12.92 1.72 2.18 1.8 3.78h-2.73c-.06-.86-.41-1.55-1.05-2.07-.62-.52-1.46-.78-2.52-.78-.98 0-1.76.21-2.34.63-.58.42-.87.97-.87 1.65 0 .54.17.99.51 1.35.36.34.8.62 1.32.84.54.2 1.28.43 2.22.69 1.18.32 2.14.64 2.88.96.74.3 1.37.76 1.89 1.38.54.62.82 1.43.84 2.43 0 .9-.25 1.71-.75 2.43-.5.72-1.21 1.29-2.13 1.71-.9.4-1.94.6-3.12.6zm24.854-9.12c0 .52-.03 1.07-.09 1.65H91.9218c.1 1.62.65 2.89 1.65 3.81 1.02.9 2.25 1.35 3.69 1.35 1.18 0 2.16-.27 2.9402-.81.8-.56 1.36-1.3 1.68-2.22h2.94c-.44 1.58-1.32 2.87-2.64 3.87-1.32.98-2.9602 1.47-4.9202 1.47-1.56 0-2.96-.35-4.2-1.05-1.22-.7-2.18-1.69-2.88-2.97-.7-1.3-1.05-2.8-1.05-4.5 0-1.7.34-3.19 1.02-4.47.68-1.28 1.63-2.26 2.85-2.94 1.24-.7 2.66-1.05 4.26-1.05 1.56 0 2.9402.34 4.1402 1.02 1.2.68 2.12 1.62 2.76 2.82.66 1.18.99 2.52.99 4.02zm-2.82-.57c0-1.04-.23-1.93-.69-2.67-.46-.76-1.09-1.33-1.8902-1.71-.78-.4-1.65-.6-2.61-.6-1.38 0-2.56.44-3.54 1.32-.96.88-1.51 2.1-1.65 3.66h10.3802zm14.433-7.32c2 0 3.62.61 4.86 1.83 1.24 1.2 1.86 2.94 1.86 5.22V202h-2.7v-9.3c0-1.64-.41-2.89-1.23-3.75-.82-.88-1.94-1.32-3.36-1.32-1.44 0-2.59.45-3.45 1.35-.84.9-1.26 2.21-1.26 3.93V202h-2.73v-16.44h2.73v2.34c.54-.84 1.27-1.49 2.19-1.95.94-.46 1.97-.69 3.09-.69zm14.51 2.55v9.69c0 .8.17 1.37.51 1.71.34.32.93.48 1.77.48h2.01V202h-2.46c-1.52 0-2.66-.35-3.42-1.05-.76-.7-1.14-1.85-1.14-3.45v-9.69h-2.13v-2.25h2.13v-4.14h2.73v4.14h4.29v2.25h-4.29zm6.578 5.91c0-1.68.34-3.15 1.02-4.41.68-1.28 1.61-2.27 2.79-2.97 1.2-.7 2.53-1.05 3.99-1.05 1.44 0 2.69.31 3.75.93 1.06.62 1.85 1.4 2.37 2.34v-3h2.76V202h-2.76v-3.06c-.54.96-1.35 1.76-2.43 2.4-1.06.62-2.3.93-3.72.93-1.46 0-2.78-.36-3.96-1.08-1.18-.72-2.11-1.73-2.79-3.03-.68-1.3-1.02-2.78-1.02-4.44zm13.92.03c0-1.24-.25-2.32-.75-3.24-.5-.92-1.18-1.62-2.04-2.1-.84-.5-1.77-.75-2.79-.75s-1.95.24-2.79.72c-.84.48-1.51 1.18-2.01 2.1-.5.92-.75 2-.75 3.24 0 1.26.25 2.36.75 3.3.5.92 1.17 1.63 2.01 2.13.84.48 1.77.72 2.79.72s1.95-.24 2.79-.72c.86-.5 1.54-1.21 2.04-2.13.5-.94.75-2.03.75-3.27zm10.703-5.94v9.69c0 .8.17 1.37.51 1.71.34.32.93.48 1.77.48h2.01V202h-2.46c-1.52 0-2.66-.35-3.42-1.05-.76-.7-1.14-1.85-1.14-3.45v-9.69h-2.13v-2.25h2.13v-4.14h2.73v4.14h4.29v2.25h-4.29zm9.008-4.92c-.52 0-.96-.18-1.32-.54-.36-.36-.54-.8-.54-1.32s.18-.96.54-1.32c.36-.36.8-.54 1.32-.54.5 0 .92.18 1.26.54.36.36.54.8.54 1.32s-.18.96-.54 1.32c-.34.36-.76.54-1.26.54zm1.32 2.67V202h-2.73v-16.44h2.73zm11.822 16.71c-1.54 0-2.94-.35-4.2-1.05-1.24-.7-2.22-1.69-2.94-2.97-.7-1.3-1.05-2.8-1.05-4.5 0-1.68.36-3.16 1.08-4.44.74-1.3 1.74-2.29 3-2.97 1.26-.7 2.67-1.05 4.23-1.05 1.56 0 2.97.35 4.23 1.05 1.26.68 2.25 1.66 2.97 2.94.74 1.28 1.11 2.77 1.11 4.47 0 1.7-.38 3.2-1.14 4.5-.74 1.28-1.75 2.27-3.03 2.97-1.28.7-2.7 1.05-4.26 1.05zm0-2.4c.98 0 1.9-.23 2.76-.69.86-.46 1.55-1.15 2.07-2.07.54-.92.81-2.04.81-3.36 0-1.32-.26-2.44-.78-3.36-.52-.92-1.2-1.6-2.04-2.04-.84-.46-1.75-.69-2.73-.69-1 0-1.92.23-2.76.69-.82.44-1.48 1.12-1.98 2.04-.5.92-.75 2.04-.75 3.36 0 1.34.24 2.47.72 3.39.5.92 1.16 1.61 1.98 2.07.82.44 1.72.66 2.7.66zm20.03-14.61c2 0 3.62.61 4.86 1.83 1.24 1.2 1.86 2.94 1.86 5.22V202h-2.7v-9.3c0-1.64-.41-2.89-1.23-3.75-.82-.88-1.94-1.32-3.36-1.32-1.44 0-2.59.45-3.45 1.35-.84.9-1.26 2.21-1.26 3.93V202h-2.73v-16.44h2.73v2.34c.54-.84 1.27-1.49 2.19-1.95.94-.46 1.97-.69 3.09-.69zM26.29 221.53c0-2.04.46-3.87 1.38-5.49.92-1.64 2.17-2.92 3.75-3.84 1.6-.92 3.37-1.38 5.31-1.38 2.28 0 4.27.55 5.97 1.65 1.7 1.1 2.94 2.66 3.72 4.68h-3.27c-.58-1.26-1.42-2.23-2.52-2.91-1.08-.68-2.38-1.02-3.9-1.02-1.46 0-2.77.34-3.93 1.02-1.16.68-2.07 1.65-2.73 2.91-.66 1.24-.99 2.7-.99 4.38 0 1.66.33 3.12.99 4.38.66 1.24 1.57 2.2 2.73 2.88 1.16.68 2.47 1.02 3.93 1.02 1.52 0 2.82-.33 3.9-.99 1.1-.68 1.94-1.65 2.52-2.91h3.27c-.78 2-2.02 3.55-3.72 4.65-1.7 1.08-3.69 1.62-5.97 1.62-1.94 0-3.71-.45-5.31-1.35-1.58-.92-2.83-2.19-3.75-3.81-.92-1.62-1.38-3.45-1.38-5.49zm23.1738 2.19c0-1.68.34-3.15 1.02-4.41.68-1.28 1.61-2.27 2.79-2.97 1.2-.7 2.53-1.05 3.99-1.05 1.44 0 2.69.31 3.75.93 1.06.62 1.85 1.4 2.37 2.34v-3h2.76V232h-2.76v-3.06c-.54.96-1.35 1.76-2.43 2.4-1.06.62-2.3.93-3.72.93-1.46 0-2.78-.36-3.96-1.08-1.18-.72-2.11-1.73-2.79-3.03-.68-1.3-1.02-2.78-1.02-4.44zm13.92.03c0-1.24-.25-2.32-.75-3.24-.5-.92-1.18-1.62-2.04-2.1-.84-.5-1.77-.75-2.79-.75s-1.95.24-2.79.72c-.84.48-1.51 1.18-2.01 2.1-.5.92-.75 2-.75 3.24 0 1.26.25 2.36.75 3.3.5.92 1.17 1.63 2.01 2.13.84.48 1.77.72 2.79.72s1.95-.24 2.79-.72c.86-.5 1.54-1.21 2.04-2.13.5-.94.75-2.03.75-3.27zm10.1035-5.52c.48-.94 1.16-1.67 2.04-2.19.9-.52 1.99-.78 3.27-.78v2.82h-.72c-3.06 0-4.59 1.66-4.59 4.98V232h-2.73v-16.44h2.73v2.67zm7.4414 5.49c0-1.68.34-3.15 1.02-4.41.68-1.28 1.61-2.27 2.79-2.97 1.2-.7 2.54-1.05 4.02-1.05 1.28 0 2.47.3 3.57.9 1.1.58 1.94 1.35 2.52 2.31v-8.7h2.76V232h-2.76v-3.09c-.54.98-1.34 1.79-2.4 2.43-1.06.62-2.3.93-3.72.93-1.46 0-2.79-.36-3.99-1.08-1.18-.72-2.11-1.73-2.79-3.03-.68-1.3-1.02-2.78-1.02-4.44zm13.92.03c0-1.24-.25-2.32-.75-3.24-.5-.92-1.18-1.62-2.04-2.1-.84-.5-1.77-.75-2.79-.75s-1.95.24-2.79.72c-.84.48-1.51 1.18-2.01 2.1-.5.92-.75 2-.75 3.24 0 1.26.25 2.36.75 3.3.5.92 1.17 1.63 2.01 2.13.84.48 1.77.72 2.79.72s1.95-.24 2.79-.72c.86-.5 1.54-1.21 2.04-2.13.5-.94.75-2.03.75-3.27z" fill="#000"/><path d="M240 240l17-17M240 223h17v17" stroke="#000" stroke-width="3" stroke-linecap="round" stroke-linejoin="round"/></svg>

<svg width="280" height="261" viewBox="0 0 280 261" xmlns="http://www.w3.org/2000/svg" fill="none"><style>.a{fill:#C4C4C4;}.b{fill:black;}</style><rect width="280" height="261" fill="white"/><rect x="112.1" y="28.8" width="106.6" height="77.1" transform="rotate(20.8607 112.06 28.831)" style="fill-opacity:0.3;fill:#C4C4C4"/><rect x="115.1" y="41.1" width="106.6" height="77.1" transform="rotate(20.8607 115.137 41.0741)" fill="#F6F6F6"/><path d="M187.3 151.1L201 115 214.7 79 115.1 41.1 87.7 113.1" style="stroke-width:3;stroke:black"/><rect x="104.8" y="88.7" width="71.4" height="4.4" transform="rotate(20.8607 104.825 88.7011)" class="a"/><rect x="99.5" y="100.6" width="58" height="4.4" transform="rotate(20.8607 99.5443 100.627)" class="a"/><path d="M125.2 68.9C126.3 69.3 127.4 69.4 128.5 69.1 129.6 68.9 130.7 68.3 131.4 67.5 132.2 66.6 132.8 65.6 132.9 64.4 133.1 63.3 133 62.2 132.5 61.1 132.1 60.1 131.3 59.2 130.3 58.6 129.4 58 128.2 57.7 127.1 57.7 126 57.7 124.8 58.1 123.9 58.8 123 59.4 122.3 60.4 121.9 61.4 121.3 62.9 121.4 64.5 122 65.9 122.6 67.3 123.8 68.3 125.2 68.9ZM124.6 70.4C121.3 69.2 113.8 68.7 112.2 72.8L111 75.9 131.1 83.5 132.3 80.4C133.8 76.3 127.9 71.7 124.6 70.4Z" class="b"/><path d="M41.3 187.2C41.3 189 40.7 190.4 39.5 191.6 38.3 192.7 36.5 193.3 34.1 193.3H30V202H27.3V181.1H34.1C36.4 181.1 38.2 181.7 39.4 182.8 40.7 183.9 41.3 185.4 41.3 187.2ZM34.1 191C35.6 191 36.7 190.7 37.4 190 38.1 189.4 38.5 188.4 38.5 187.2 38.5 184.6 37 183.3 34.1 183.3H30V191H34.1ZM47.4 188.2C47.9 187.3 48.6 186.6 49.5 186 50.4 185.5 51.4 185.3 52.7 185.3V188.1H52C48.9 188.1 47.4 189.7 47.4 193.1V202H44.7V185.6H47.4V188.2ZM70.9 193.2C70.9 193.7 70.8 194.2 70.8 194.8H57.6C57.7 196.4 58.3 197.7 59.3 198.6 60.3 199.5 61.5 200 63 200 64.2 200 65.1 199.7 65.9 199.2 66.7 198.6 67.3 197.9 67.6 196.9H70.5C70.1 198.5 69.2 199.8 67.9 200.8 66.6 201.8 64.9 202.3 63 202.3 61.4 202.3 60 201.9 58.8 201.2 57.6 200.5 56.6 199.5 55.9 198.3 55.2 197 54.9 195.5 54.9 193.8 54.9 192.1 55.2 190.6 55.9 189.3 56.6 188 57.5 187 58.7 186.3 60 185.6 61.4 185.3 63 185.3 64.5 185.3 65.9 185.6 67.1 186.3 68.3 187 69.2 187.9 69.9 189.1 70.5 190.3 70.9 191.7 70.9 193.2ZM68.1 192.6C68.1 191.5 67.8 190.7 67.4 189.9 66.9 189.2 66.3 188.6 65.5 188.2 64.7 187.8 63.8 187.6 62.9 187.6 61.5 187.6 60.3 188 59.3 188.9 58.4 189.8 57.8 191 57.7 192.6H68.1ZM80.3 202.3C79 202.3 77.9 202.1 76.9 201.6 75.9 201.2 75.1 200.6 74.5 199.8 74 199.1 73.6 198.2 73.6 197.2H76.4C76.5 198 76.9 198.7 77.5 199.2 78.2 199.7 79.1 200 80.3 200 81.3 200 82.1 199.7 82.7 199.3 83.3 198.8 83.6 198.2 83.6 197.5 83.6 196.8 83.3 196.3 82.7 195.9 82 195.6 81 195.2 79.7 194.9 78.5 194.6 77.5 194.3 76.7 193.9 75.9 193.6 75.3 193.1 74.7 192.5 74.2 191.8 73.9 190.9 73.9 189.9 73.9 189 74.2 188.3 74.7 187.6 75.2 186.9 75.9 186.3 76.8 185.9 77.7 185.5 78.8 185.3 79.9 185.3 81.8 185.3 83.2 185.8 84.3 186.7 85.5 187.6 86.1 188.9 86.1 190.5H83.4C83.4 189.6 83 188.9 82.4 188.4 81.7 187.9 80.9 187.6 79.8 187.6 78.9 187.6 78.1 187.8 77.5 188.2 76.9 188.7 76.6 189.2 76.6 189.9 76.6 190.4 76.8 190.9 77.1 191.2 77.5 191.6 77.9 191.9 78.5 192.1 79 192.3 79.7 192.5 80.7 192.8 81.9 193.1 82.8 193.4 83.6 193.7 84.3 194 84.9 194.5 85.5 195.1 86 195.7 86.3 196.5 86.3 197.5 86.3 198.4 86 199.2 85.5 200 85 200.7 84.3 201.3 83.4 201.7 82.5 202.1 81.5 202.3 80.3 202.3ZM105.2 193.2C105.2 193.7 105.1 194.2 105.1 194.8H91.9C92 196.4 92.6 197.7 93.6 198.6 94.6 199.5 95.8 200 97.3 200 98.4 200 99.4 199.7 100.2 199.2 101 198.6 101.6 197.9 101.9 196.9H104.8C104.4 198.5 103.5 199.8 102.2 200.8 100.9 201.8 99.2 202.3 97.3 202.3 95.7 202.3 94.3 201.9 93.1 201.2 91.8 200.5 90.9 199.5 90.2 198.3 89.5 197 89.1 195.5 89.1 193.8 89.1 192.1 89.5 190.6 90.2 189.3 90.8 188 91.8 187 93 186.3 94.2 185.6 95.7 185.3 97.3 185.3 98.8 185.3 100.2 185.6 101.4 186.3 102.6 187 103.5 187.9 104.2 189.1 104.8 190.3 105.2 191.7 105.2 193.2ZM102.3 192.6C102.3 191.5 102.1 190.7 101.6 189.9 101.2 189.2 100.6 188.6 99.8 188.2 99 187.8 98.1 187.6 97.1 187.6 95.8 187.6 94.6 188 93.6 188.9 92.6 189.8 92.1 191 92 192.6H102.3ZM116.8 185.3C118.8 185.3 120.4 185.9 121.6 187.1 122.9 188.3 123.5 190 123.5 192.3V202H120.8V192.7C120.8 191.1 120.4 189.8 119.6 189 118.7 188.1 117.6 187.6 116.2 187.6 114.8 187.6 113.6 188.1 112.7 189 111.9 189.9 111.5 191.2 111.5 192.9V202H108.8V185.6H111.5V187.9C112 187.1 112.8 186.4 113.7 186 114.6 185.5 115.6 185.3 116.8 185.3ZM131.3 187.8V197.5C131.3 198.3 131.4 198.9 131.8 199.2 132.1 199.5 132.7 199.7 133.6 199.7H135.6V202H133.1C131.6 202 130.4 201.7 129.7 201 128.9 200.3 128.5 199.1 128.5 197.5V187.8H126.4V185.6H128.5V181.4H131.3V185.6H135.6V187.8H131.3ZM137.9 193.7C137.9 192 138.2 190.6 138.9 189.3 139.6 188 140.5 187 141.7 186.3 142.9 185.6 144.2 185.3 145.7 185.3 147.1 185.3 148.3 185.6 149.4 186.2 150.5 186.8 151.3 187.6 151.8 188.6V185.6H154.5V202H151.8V198.9C151.2 199.9 150.4 200.7 149.3 201.3 148.3 202 147 202.3 145.6 202.3 144.2 202.3 142.8 201.9 141.7 201.2 140.5 200.5 139.6 199.5 138.9 198.2 138.2 196.9 137.9 195.4 137.9 193.7ZM151.8 193.8C151.8 192.5 151.5 191.4 151 190.5 150.5 189.6 149.8 188.9 149 188.4 148.1 187.9 147.2 187.7 146.2 187.7 145.2 187.7 144.2 187.9 143.4 188.4 142.6 188.9 141.9 189.6 141.4 190.5 140.9 191.4 140.6 192.5 140.6 193.7 140.6 195 140.9 196.1 141.4 197 141.9 197.9 142.6 198.7 143.4 199.2 144.2 199.6 145.2 199.9 146.2 199.9 147.2 199.9 148.1 199.6 149 199.2 149.8 198.7 150.5 197.9 151 197 151.5 196.1 151.8 195 151.8 193.8ZM162.5 187.8V197.5C162.5 198.3 162.6 198.9 163 199.2 163.3 199.5 163.9 199.7 164.8 199.7H166.8V202H164.3C162.8 202 161.6 201.7 160.9 201 160.1 200.3 159.7 199.1 159.7 197.5V187.8H157.6V185.6H159.7V181.4H162.5V185.6H166.8V187.8H162.5ZM171.5 182.9C171 182.9 170.5 182.7 170.2 182.4 169.8 182 169.6 181.6 169.6 181 169.6 180.5 169.8 180.1 170.2 179.7 170.5 179.4 171 179.2 171.5 179.2 172 179.2 172.4 179.4 172.7 179.7 173.1 180.1 173.3 180.5 173.3 181 173.3 181.6 173.1 182 172.7 182.4 172.4 182.7 172 182.9 171.5 182.9ZM172.8 185.6V202H170.1V185.6H172.8ZM184.6 202.3C183.1 202.3 181.7 201.9 180.4 201.2 179.2 200.5 178.2 199.5 177.5 198.3 176.8 197 176.4 195.5 176.4 193.8 176.4 192.1 176.8 190.6 177.5 189.3 178.3 188 179.3 187 180.5 186.3 181.8 185.6 183.2 185.3 184.7 185.3 186.3 185.3 187.7 185.6 189 186.3 190.2 187 191.2 188 191.9 189.3 192.7 190.6 193.1 192.1 193.1 193.8 193.1 195.5 192.7 197 191.9 198.3 191.2 199.5 190.2 200.5 188.9 201.2 187.6 201.9 186.2 202.3 184.6 202.3ZM184.6 199.9C185.6 199.9 186.5 199.6 187.4 199.2 188.2 198.7 188.9 198 189.5 197.1 190 196.2 190.3 195.1 190.3 193.8 190.3 192.4 190 191.3 189.5 190.4 189 189.5 188.3 188.8 187.4 188.4 186.6 187.9 185.7 187.7 184.7 187.7 183.7 187.7 182.8 187.9 182 188.4 181.1 188.8 180.5 189.5 180 190.4 179.5 191.3 179.2 192.4 179.2 193.8 179.2 195.1 179.5 196.2 179.9 197.1 180.4 198.1 181.1 198.8 181.9 199.2 182.7 199.7 183.6 199.9 184.6 199.9ZM204.7 185.3C206.7 185.3 208.3 185.9 209.5 187.1 210.8 188.3 211.4 190 211.4 192.3V202H208.7V192.7C208.7 191.1 208.3 189.8 207.4 189 206.6 188.1 205.5 187.6 204.1 187.6 202.6 187.6 201.5 188.1 200.6 189 199.8 189.9 199.4 191.2 199.4 192.9V202H196.6V185.6H199.4V187.9C199.9 187.1 200.6 186.4 201.6 186 202.5 185.5 203.5 185.3 204.7 185.3ZM26.3 221.5C26.3 219.5 26.8 217.7 27.7 216 28.6 214.4 29.8 213.1 31.4 212.2 33 211.3 34.8 210.8 36.7 210.8 39 210.8 41 211.4 42.7 212.5 44.4 213.6 45.6 215.1 46.4 217.2H43.2C42.6 215.9 41.7 214.9 40.6 214.2 39.6 213.6 38.3 213.2 36.7 213.2 35.3 213.2 34 213.6 32.8 214.2 31.6 214.9 30.7 215.9 30.1 217.2 29.4 218.4 29.1 219.9 29.1 221.5 29.1 223.2 29.4 224.7 30.1 225.9 30.7 227.2 31.6 228.1 32.8 228.8 34 229.5 35.3 229.8 36.7 229.8 38.3 229.8 39.6 229.5 40.6 228.8 41.7 228.1 42.6 227.2 43.2 225.9H46.4C45.6 227.9 44.4 229.5 42.7 230.6 41 231.6 39 232.2 36.7 232.2 34.8 232.2 33 231.7 31.4 230.8 29.8 229.9 28.6 228.6 27.7 227 26.8 225.4 26.3 223.6 26.3 221.5ZM49.5 223.7C49.5 222 49.8 220.6 50.5 219.3 51.2 218 52.1 217 53.3 216.3 54.5 215.6 55.8 215.3 57.3 215.3 58.7 215.3 60 215.6 61 216.2 62.1 216.8 62.9 217.6 63.4 218.6V215.6H66.1V232H63.4V228.9C62.8 229.9 62 230.7 61 231.3 59.9 232 58.7 232.3 57.2 232.3 55.8 232.3 54.5 231.9 53.3 231.2 52.1 230.5 51.2 229.5 50.5 228.2 49.8 226.9 49.5 225.4 49.5 223.7ZM63.4 223.8C63.4 222.5 63.1 221.4 62.6 220.5 62.1 219.6 61.5 218.9 60.6 218.4 59.8 217.9 58.8 217.7 57.8 217.7 56.8 217.7 55.9 217.9 55 218.4 54.2 218.9 53.5 219.6 53 220.5 52.5 221.4 52.3 222.5 52.3 223.7 52.3 225 52.5 226.1 53 227 53.5 227.9 54.2 228.7 55 229.2 55.9 229.6 56.8 229.9 57.8 229.9 58.8 229.9 59.8 229.6 60.6 229.2 61.5 228.7 62.1 227.9 62.6 227 63.1 226.1 63.4 225 63.4 223.8ZM73.5 218.2C74 217.3 74.6 216.6 75.5 216 76.4 215.5 77.5 215.3 78.8 215.3V218.1H78.1C75 218.1 73.5 219.7 73.5 223.1V232H70.8V215.6H73.5V218.2ZM80.9 223.7C80.9 222 81.3 220.6 81.9 219.3 82.6 218 83.6 217 84.7 216.3 85.9 215.6 87.3 215.3 88.8 215.3 90 215.3 91.2 215.6 92.3 216.2 93.4 216.8 94.3 217.5 94.8 218.5V209.8H97.6V232H94.8V228.9C94.3 229.9 93.5 230.7 92.4 231.3 91.4 232 90.1 232.3 88.7 232.3 87.3 232.3 85.9 231.9 84.7 231.2 83.6 230.5 82.6 229.5 81.9 228.2 81.3 226.9 80.9 225.4 80.9 223.7ZM94.8 223.8C94.8 222.5 94.6 221.4 94.1 220.5 93.6 219.6 92.9 218.9 92.1 218.4 91.2 217.9 90.3 217.7 89.3 217.7 88.2 217.7 87.3 217.9 86.5 218.4 85.6 218.9 85 219.6 84.5 220.5 84 221.4 83.7 222.5 83.7 223.7 83.7 225 84 226.1 84.5 227 85 227.9 85.6 228.7 86.5 229.2 87.3 229.6 88.2 229.9 89.3 229.9 90.3 229.9 91.2 229.6 92.1 229.2 92.9 228.7 93.6 227.9 94.1 227 94.6 226.1 94.8 225 94.8 223.8Z" class="b"/><path d="M247.3 222.5C247.3 213.8 240.3 206.7 231.5 206.7 222.8 206.7 215.7 213.8 215.7 222.5 215.7 231.3 222.8 238.3 231.5 238.3 240.3 238.3 247.3 231.3 247.3 222.5ZM231.1 229.5C231 229.3 230.9 229.2 230.9 229.1 230.8 228.9 230.8 228.8 230.8 228.6 230.8 228.4 230.8 228.3 230.9 228.1 230.9 228 231 227.8 231.1 227.7L235.1 223.7H224.9C224.6 223.7 224.3 223.6 224.1 223.4 223.9 223.1 223.7 222.8 223.7 222.5 223.7 222.2 223.9 221.9 224.1 221.6 224.3 221.4 224.6 221.3 224.9 221.3H235.1L231.1 217.3C231 217.2 230.9 217 230.9 216.9 230.8 216.7 230.8 216.6 230.8 216.4 230.8 216.2 230.8 216.1 230.9 215.9 230.9 215.8 231 215.7 231.1 215.5 231.3 215.4 231.4 215.3 231.5 215.3 231.7 215.2 231.9 215.2 232 215.2 232.3 215.2 232.6 215.3 232.9 215.5L238.9 221.6C239.1 221.9 239.3 222.2 239.3 222.5 239.3 222.8 239.1 223.1 238.9 223.4L232.9 229.5C232.8 229.6 232.6 229.7 232.5 229.7 232.3 229.8 232.2 229.8 232 229.8 231.9 229.8 231.7 229.8 231.5 229.7 231.4 229.7 231.3 229.6 231.1 229.5Z" class="b"/></svg>
